X:1
T:Heiliger Dankgesang eines Genesenen and die Gottheit, in der lydiscen Tonart.
%%score [ [ 1 ( 2 3 ) ( 4 5 ) 6 ] ]
L:1/8
Q:1/4=35
M:4/4
K:C
V:1 treble nm="Violin I"
V:2 treble nm="Violin II"
V:3 treble 
V:4 alto nm="Viola"
V:5 alto 
V:6 bass nm="Violoncello"
V:1
!p!"^Molto adagio""^Heiliger Dankgesang eines Genesenen an die Gottheit, in der lydischen Tonart." (C2"_sotto voce" A2 | %1
 G2 c2 c2 F2 | G2 F2) F4 | F4 E4 | D4 E4 |"_cresc." F4!mp! G4 |!p! F4 (a2 d2 | e2 f2 g2 f2 | %8
 e2 G2)!<(! G4 | A4 c4 | A4 G4!<)! |!mp! F4!>(! D4!>)! |!p! E4 z4 | z4 (E2 C2 | D2 E2) E4 | %15
"_cresc." c4 B4 | c4 A4 | B4 c4 |!f!!>(! [Dd]4!>)!!p! (g2 c2 | d2 e2 f2 e2 | B2 c2) c4 | %21
"_cresc." c4 d4 | G4 A4 | D4!mp!!>(! E4!>)! |!p! F4 (c2 a2 | e2 f2)!<(! (f2 d2 | %26
 c2!<)!!mp! B2)!p! c4 |"_cresc." c4 d4 | G4!mp! A4 |!p! F4 G4 |"_cresc." E4 (.a2 .a2) || %31
[K:D][M:3/8]!f!"^Andante" a3 |"^Neue Kraft fuhlend"!p! !trill(!Ta3- |!f! a3- | %34
!p!"_cresc." !trill)!a3 |!f! .b.G,"^ten."!>!b | z/!p! a/ z/4 .a/4.b/4.c'/4.d'/4.e'/4.f'/4.g'/4 | %37
"_cresc." (a'g'f') | (e'/e<!f!!>(!b!mf!a/)!>)! |!f!{/^ga} Ta3 | %40
!p! a/A,/ z/ e'/-e'/4(d'/8c'/8).b/4.a/4 |!f!{/^ga} Ta3 |!p! a/F/ z/ c'/-c'/4(b/8a/8).g/4.f/4 | %43
!f! .b.G,"^ten."!>!b | z/!p!{b} (a/4^g/4) z/4 a/4{a}(b/4c'/4){c'} (d'/4e'/4){e'} (f'/4=g'/4) | %45
"_cresc." (a'g'f' | e'/e/)!f!!>(!{/e}(b3/2!mf!a/4^g/4)!>)! |!p! =g z z | (d'gTf) | e z z | %50
 (d'g/).g/ (!trill(!Tf/g/4a/4) |!pp! (^a/4B/4) z/4 a/4 (f/4G/4) z/4 g/4 (^d/4E/4) z/4 e/4 | %52
 (=d/4E/4) z/4 c/4 (d/4E/4) z/4 e/4 (f/4G/4) z/4 g/4 | %53
"_cresc." (^g/4e/4) z/4 a/4 (_b/4e/4) z/4 =b/4 (_b/4e/4) z/4 a/4 | %54
 (_b/4e/4) z/4 =b/4 (_b/4e/4) z/4 a/4 (b/4e/4) z/4!f! =b/4 |!ff!!>(! (bd'f'!>)! | %56
!f! a'/a/) e'-!>(! e'/4(d'/4e'/4f'/4)!>)! |!p! g' z z | (d'g/).g/!trill(!Tf | e z z | %60
 .d'/4(d'/4e'/4d'/4) .g/4(g/4a/4g/4) (.f/4{/gfe}f/4g/4a/4) | %61
!pp! (^a/4B/4) z/4 b/4 (f/4G/4) z/4 g/4 (^d/4E/4) z/4 e/4 | %62
 (=d/4E/4) z/4 c/4 (d/4E/4) z/4 e/4 (f/4G/4) z/4 g/4 | %63
"_cresc." (^g/4e/4) z/4 =a/4 (^a/4e/4) z/4 b/4 (a/4e/4) z/4 =a/4 | %64
 (^a/4e/4) z/4 b/4 (a/4e/4) z/4 =a/4 (^a/4e/4) z/4 b/4 |!ff!!>(! (bd'f'!>)! | %66
!f! =a'/=a/e'-)!>(!e'/4(d'/4c'/4d'/4)!>)! |!p! (d'2 f | g3) | f2 (f/g/4a/4) | bb (b/c'/4d'/4) | %71
!<(! (d'a!mp!f)!<)! | g-(3g/(g/a/ (3b/a/)g/ | (g/ff/) (Tf/g/4a/4) | %74
 (^a/4b/4)bb/ (b/{/^ab}c'/4d'/4) |"_cresc." (d'/=a^a/c'/b/) |!mp! (b!>(!d>e)!>)! | %77
!p! (e"_cresc."fg | =a!mp!b!>(!c')!>)! |!p! d'"_cresc."(a/f/)(f/g/) | %80
 (^g/a/) (^a/!mp!b/)!>(! (b/c'/)!>)! |!p! (c'/d'/)"_piu" .d'!p!(.d' | .d') z!pp! (.=c' | %83
 .=c') z c' ||[K:D][M:4/4] z2"^Molto Adagio" =c'3 |[K:C] x z z2 | z8 | z4!p! f4 | f4 e4 | d4 e4 | %90
"_cresc." f4!mp! g4 |!p! f4 z4 | z8 | z4"_cresc." g4 | a4 c'4 | a4 g4 |!mp! f4!>(! d4!>)! | %97
!p! e4 z4 | z8 | z4 e4 |"_cresc." c'4 b4 | c'4 a4 | b4 c'4 |!f!!>(! d'4!>)! z4 | z8 | z4!p! c'4 | %106
"_cresc." c'4 d'4 | g4 a4 |!mp! d4!>(! e4!>)! |!p! f4 z4 | z8 | z4!p! c'4 |"_cresc." c'4 d'4 | %113
 g4!mp! a4 |!p! f4 g4 |!p!"_cresc." e4 a4 ||[K:D][M:3/8]!f!"^Andante" .d'.D"^ten."f' | %117
 z/!p! e'/ z/4 (a/4d'/4c'/4 b/4a/4b/4c'/4) |!f! .d'.D"^ten."f' | %119
 z/!p! c'/ z/4 (f/4b/4a/4 g/4f/4g/4a/4) |!f! .b.G,"^ten."b | %121
 z/!p! a/ z/4 .a/4.b/4.c'/4.d'/4.e'/4.f'/4.g'/4 |"_cresc." (a'g'f') | (e'/!mf!e<!>(!b!p!a/)!>)! | %124
!f! .a/4.D/4.f/4.g/4 .a/4.b/4.c'/4.d'/4 .e'/4.f'/4.g'/4.a'/4 |!p! a'/ TA3/2{/^GA^ga} !trill(!Ta | %126
!f! .d/4.D/4.d/4.e/4 .f/4.b/4.c'/4.d'/4 .e'/4.f'/4.f'/4.f'/4 |!p! f'/ TF3/2{/EFef} Tf | %128
!f! .b.G,"^ten."b | z/!p! (3b/4a/4^g/4 z/4 a/4(3a/4b/4c'/4 (3c'/4d'/4e'/4 (3e'/4f'/4=g'/4 | %130
"_cresc." (a'/a/g/g'/f'/f/ | e'/e/!mf!b-)!>(! (b/4e/4a/4^g/4)!>)! |!p! =g z z | (d'gTf) | e z z | %135
 (d'g/).g/ (Tf/g/4a/4) |!pp! (^a/4B/4) z/4 b/4 (f/4B/4) z/4 g/4 (^d/4E/4) z/4 e/4 | %137
 (=d/4E/4) z/4 c/4 (d/4E/4) z/4 e/4 (f/4G/4) z/4 g/4 | %138
"_cresc." (^g/4e/4) z/4 a/4 (^a/4e/4) z/4 b/4 (a/4e/4) z/4 =a/4 | %139
 (^a/4e/4) z/4 b/4 (a/4e/4) z/4 =a/4 (^a/4e/4) z/4 b/4 |!f! (!>!bd'f' | %141
 a'/a/!>(!(e'-) e'/4d'/4g'/4f'/4)!>)! |!p! .e'/4(e'/4f'/4e'/4) .a/4(a/4b/4a/4)!trill(!Tg | f z z | %144
 (6:4:6(^d'/4e'/4f'/4e'/4d'/4e'/4) (6:4:6(^g/4a/4b/4a/4g/4a/4) T=g | f z z | %146
!pp! z (f/4G/4) f/4(a/8g/8) (^d/4E/4) =d/4(f/8e/8) | %147
 (=d/4E/4) .B/4(d/8c/8) (d/4E/4) .^d/4(f/8e/8) (f/4G/4) .f/4(a/8g/8) | %148
"_cresc." (^g/4e/4) .g/4(b/8a/8) (^a/4e/4) .a/4(c'/8b/8) (a/4e/4b/4=a/4) | %149
 (^a/4e/4) .a/4(c'/8b/8) (a/4e/4) .^g/4(b/8=a/8) (^a/4e/4) .a/4(c'/8b/8) | %150
!f![Q:1/4=30] (!>!b/4e/4c'/4d'/4) (d'/4f/4e'/4f'/4) (f'/4=f/4f'/4a'/4) | %151
 (a'/4a/4f'/4e'/4) e'-!>(! (e'/4d'/4c'/4e'/8d'/8)!>)! |!p![Q:1/4=35] (d'2 f | g3) | f2 (f/g/4a/4) | %155
 bb (Tb/{/^ab}c'/4d'/4) |!<(! d'- (d'/=a/)!<)!!mp!!>(!(a/f/)!>)! | %157
!mp! (f/g/-) (g/a/4g/4 f/4g/4b/4g/4) | (g/4f/4^e/4f/4 e/4f/4g/4f/4 e/4f/4g/4a/4) | %159
 (^a/4b/4c'/4b/4) (b/4B/4b/4a/4) (a/4b/4c'/4d'/4) | %160
"_cresc." (d'/4=A/4b/4=a/4) (a/4A/4^a/4)a/4 (a/4B/4b/4)b/4 | %161
 b/4(D/4=e/4d/4 c/4d/4f/4e/4!mp!!>(! ^d/4e/4g/4f/4)!>)! |!p! (e/4f/4=a/4g/4)"_cresc." (fg | abc') | %164
!p! (d'/4d/4) z/4 d'/4"_cresc." (d'/4d/4) z/4 d'/4 (d'/4d/4) z/4 d'/4 | %165
 (d'/4d/4) z/4 d'/4 (d'/4d/4) z/4 d'/4!mf!!>(! (e'/4e/4) z/4 e'/4!>)! | %166
!p! (e'/4e/4) z/4 f'/4"_piu" .d'!p!(.d' | .d') z!pp! (.=c' | .=c') z c' || %169
[K:C][M:4/4]"^Molto adagio" z2!p!!<(!!>(! c'3 z z2!<)!!>)! | z8 | z8 | %172
 z"^Mit innigster Empfindung" (C A2-) (A/G/)c- (c/d/)c- | (cFGA-)!<(! (A/F/)G- (G/A/)!mp!G-!<)! | %174
!p! (G2 G,4) (d2 | c2) c'2!<(! d'2!mp! g2!<)! |!p! a2 z2 z4 | z4!<(! c4!<)! |!p!"_cresc." c4 B4 | %179
 A4 B4 | c4 f4 |!f!"_dim." e4 d4- |!p!"_piu"!p! (d2!p! A4) A2 |!pp! A4 z (C A2-) | %184
 (A/G/)c- (c/d/)c- (cE F2 | G2 F2) (E"_cresc." c2)!mp! c- |!p! (c2 c'3) (c' g'2) | z (g' f'2) c'4 | %188
 (c'4"_cresc." b2 f'2) | f'4 e'4 |!f! d'4 !>!e'4 | !>!f'4 !>!g'4 | !>!f'8 | !>!g'4 !>!a'4 | %194
 !>!g'8 |"_dim." (g'4 f'4 | c'4 a4) |!p! (g4!p!"_piu" f4) | f4!pp! e4 | z4!<(! f4!<)! | %200
!p!!<(! f4!<)!!mp!!>(! e4!>)! | z4!p!"_cresc." d'4 |!f! !>!d'6!mf!!>(! c'2!>)! |!p! c'8- | c'8- | %205
 c'(c a2-) (a/g/)c'- (c'/d'/)c'- | (c'fga-) (a/f/)g- (g/a/)g | (f'4 e'4 | d'4 e'4-) | %209
"_cresc." e'2 (.e'2 .d'2!f! !breath!.e'2) |!p! f'4 z4 | %211
!p!"_piu" a'2- (a'-!breath!a') a'2- (a'-!breath!a') |!pp![Q:1/4=15] !fermata!f'4 z4 |] %213
V:2
 z2 z2 |!p! (C2"^sotto voce" A2 [G,E]2) (C2 | E2 F2) A,4 | C4 C4 | A,4 C4 | %5
"_cresc." (C4 B,2!mp! E2) |!p! A,4 z4 | (A2 D2- D2 G,2) | ([G,G]2 B,2)!<(! C4 | C4 [CG]4 | %10
 C4 C4!<)! |!mp! (C2 F2!>(! G,2 B,2)!>)! |!p! C4 z4 | z4 (B,2 G,2 | B,2 C2) C4 |"_cresc." E4 E4 | %16
 [G,E]4 C4 | F4 [CE]4 |!f!!>(! [B,D]4!>)! z4 | (G2 C2 D2 E2 | F2 C2) C4 |"_cresc." C4 B,4 | C4 C4 | %23
 (B,4!mp!!>(! G,2 C2)!>)! |!p! A,4 z4 | (C2 A2) c2"_cresc." (A,2 | G,2!mp! F2)!p! F4 | %27
"_cresc." F4 B,4 | C4!mp! A,4 |!p! A,4 B,4 |"_cresc." (.^C2 .A2 .A2 .A2) || %31
[K:D][M:3/8]!f! .d.D"^ten."!>!f | z/!p! e/ z/4 (A/4d/4c/4B/4A/4B/4c/4) |!f! .d.D"^ten."d | %34
 z/!p! c/ z/4 (F/4B/4A/4G/4F/4G/4A/4) |!f! .D.d z |!p! .A.a z | z/"_cresc." (d/A/e/A/d/) | %38
 (c/C/D/E/C/E/) |!f! .[Fd].D"^ten."f | z/!p! e/ z/4 (A/4d/4c/4B/4A/4B/4c/4) |!f! .d.D"^ten."d' | %42
 z/!p! c'/ z/4 (f/4b/4a/4g/4f/4g/4a/4) |!f! .B.b z |!p! .A.a z | %45
"_cresc." z/{/^c} d/ z/{/^g} a/ z/{/^G} A/ | z/{/^G} A/!mf!!>(! z/{/^D} E/ z/{/^d} e/!>)! | %47
!p! (eA!trill(!T=G) | F2 z | (eA/).A/ !trill(!TG | (F/d/c/a/-) a/4(D/4E/4F/4) | %51
 z/!pp! [G,B]/4[G,B]/4 z/ [G,B]/4[G,B]/4 z/ [G,B]/4[G,B]/4 | %52
 z/ [GA]/4[GA]/4 z/ [GA]/4[GA]/4 z/ [GA]/4[GA]/4 | %53
 z/"_cresc." [GA]/4[GA]/4 z/ [GA]/4[GA]/4 z/ [GA]/4[GA]/4 | %54
 z/ [GA]/4[GA]/4 z/ [GA]/4[GA]/4 z/ [CE]/4!f!B/4 |!ff!!>(! (B[DF]) F-!>)! | %56
!f! FA-!>(!(A/4d/4c/4d/4)!>)! |!p! (eA/).A/ !trill(!TG | F2 z | %59
 .e/4(e/4f/4e/4) .A/4(A/4B/4A/4) !trill(!TG | .F/.f/.c/a/- a/4A/4G/4F/4 | %61
!pp! [G,G]/4[G,G]/4 z/ [G,B]/4[G,B]/4 z/ [G,B]/4[G,B]/4 z/ | %62
 [GA]/4[GA]/4 z/ [GA]/4[GA]/4 z/ [GA]/4[GA]/4 z/ | %63
"_cresc." [Ee]/4[Ee]/4 z/ [Ee]/4[Ee]/4 z/ [Ee]/4[Ee]/4 z/ | %64
 [Ee]/4[Ee]/4 z/ [Ee]/4[Ee]/4 z/ [Ec]/4[Ec]/4 [CE]/4[CE]/4 |!ff!!>(! (B[DF])F-!>)! | %66
!f!!mp! FA-!>(! (A/4d/4G/4F/4)!>)! |!p! (FdD) | z (DG) | z (DF) | z (DB) | %71
!<(! z/ c/d/!<)!!mp!c/!>(!d/=c/!>)! |!p! (=c/^A/B/c/d/B/) | (B/^G/=A/^c/d/)A/- | (A/F/=G/c/d/G/) | %75
"_cresc." (G/F/d/^A/c/B/) | (d/F/)!mp!(F/!>(!=A,/G/A,/)!>)! | %77
!p! F/4(d/4f/4e/4"_cresc." d/4c/4B/4A/4 G/4e/4c/4G/4 | %78
 F/4d/4A/4F/4 =F/4d/4B/4!mp!F/4!>(! E/4c/4G/4E/4)!>)! |!p! ^F"_cresc." [Dd]2- | %80
 [Dd]!mp!([Dd]!>(![Ee-])!>)! |!p! (e/f/)"_piu" .d!p!(.d | .d) z!pp! (.=c | .=c) z c || %84
[K:D][M:4/4] z2 =c3 |[K:C]!p! (C2 A2 | z G c3) (c F2 | G2 F2- F2) c2- | c2 c4 G2- | G2 F2 G2 c2- | %90
"_cresc." c2 f4!mp! e2- |!p! (e2 d2) (a2 d2) | z (e f3) (g f2) | e2 [B,G-]2"_cresc." [CG]2 G2- | %94
 G2 (F2 G2 g2-) | (g2 f2- f2 e2-) | (e2 d!mp!c-)!>(! (c2 B2-)!>)! |!p! (B2 c2-) (cd) e2- | %98
 (ef g2) (G2 C2 | z D E2) (ed) c2- |"_cresc." (c2 a4 g2-) | g2 (g4 f2) | G2 G4 G2- | %103
!f!!>(! G2!>)! B2!p! (g2 c2 | z d e3 f e2) | (B2 c2) C4- |"_cresc." C2 (F4 B2 | c2 e2- e2 f2) | %108
 F2!mp! D2-!>(! (D2 C2-)!>)! |!p! (C2 A2) (c2 a2 | z e f3 e d2 | c2 B2) (F2 c2-) | %112
"_cresc." (c2 f2 f2 B2 | c2 e2- e2!mp! f2-) |!p! (f2 d2 d2 B2) |!p!"_cresc." (A3 E e2 g2) || %116
[K:D][M:3/8]!f! .[DAf].f z |!p! .A.a z |!f! .D.[df] z |!p! .F.f z |!f! .B,.[Dd] z |!p! .D.d z | %122
"_cresc." z/4 .A,/4.C/4.D/4 .E/4.F/4.G/4.A/4 .A/4.B/4.c/4.d/4 | %123
 .c/4.e/4.d/4!mf!.c/4!>(! .d/4.B/4.e/4.d/4 .c/4.e/4.a/4!>)!!p!.c'/4 |!f! d'.Ef | %125
 z/!p! e/ z/4 (A/4d/4c/4 B/4A/4b/4c'/4) |!f! .d'.D.d' | z/!p! c'/ z/4 (f/4b/4a/4 g/4f/4g/4a/4) | %128
!f! .D/4.d/4.e/4.f/4 .g/4.a/4.b/4.c'/4 .d'/4.d'/4.d'/4.d'/4 |!p! .d'.dG- |"_cresc." (G A2-) | %131
 (A/c/)!mf! (d!>(!c/d/)!>)! |!p! (eATG) | F2 z | (eA/).A/ TG | (F/A)a/- (a/4A/4G/4F/4) | %136
!pp! [G,G]/4[G,G]/4 z/ [G,B]/4[G,B]/4 z/ [G,B]/4[G,B]/4 z/ | %137
 [GA]/4[GA]/4 z/ [GA]/4[GA]/4 z/ [GA]/4[GA]/4 z/ | %138
"_cresc." [Ee]/4[Ee]/4 z/ [Ee]/4[Ee]/4 z/ [Ee]/4[Ee]/4 z/ | %139
 [Ee]/4[Ee]/4 z/ [Ee]/4[Ee]/4 z/ [Ee]/4[Ee]/4[CE]/4[CE]/4 |!f! (!>!B[DF])[A,F]- | %141
 [A,F]!>(!(G-G/4F/4e/4d/4)!>)! |!p! .c/.c'/.d'/.d/.e/.e'/ | %143
 .d'/4(d'/4e'/4d'/4) .g/4(g/4a/4g/4) !trill(!Tf |"^(""^)" .Te/.c'/.d'/.d/.e/.e'/ | %145
 (6:4:6(c'/4d'/4e'/4d'/4c'/4d'/4) (6:4:6(f/4g/4a/4g/4f/4g/4) (6:4:6(a/4b/4e/4f/4g/4a/4) | %146
!pp!"_arco" (^a/4B/4) a/4(c'/8b/8) z/4 [GB]/4[GB]/4 z/4 z/4 [GB]/4[GB]/4 z/4 | %147
 z/4 [GA]/4[GA]/4 z/4 z/4 [GA]/4[GA]/4 z/4 z/4 [GA]/4[GA]/4 z/4 | %148
"_arco""_cresc." z/4 [Ge]/4[Ge]/4 z/4 z/4 [Ge]/4[Ge]/4 z/4 z/4 [Ge]/4[Ge]/4 z/4 | %149
 [Ge]/4[ce]/4[ce]/4 z/4 z/4 [ce]/4[ce]/4 z/4 z/4 [ce]/4[ce]/4[ce]/4 |!f! (!>!e/d/) (d/F/) (F/D/) | %151
 (D/A,/) A,-!>(! A,/4(A/4G/4F/4)!>)! |!p! (F D2-) | D (dB/) z/ | z (dF) | z (dB) | %156
!<(! z/ (c/d/c/!<)!!mp!!>(!d/=c/)!>)! |!mp! (=c/^A/B/c/d/B/) | (B/^G/=A/^c/4d/4)(d/A/-) | %159
 (A/F/ =G/c/4d/4) (d/G/) |"_cresc." (G/^E/4F/4 d/^A/d/B/) | d/F/ F/=A,/!mp!!>(!G/A,/!>)! | %162
!p! A,/4(d/4f/4e/4"_cresc." d/4c/4B/4A/4 G/4e/4c/4G/4 | F/4d/4A/4F/4 =F/4d/4B/4F/4 E/4c/4G/4E/4) | %164
!p! (^F"_cresc."fg | ab!mf!!>(!c'-)!>)! |!p! (c'/d'/)"_piu" .d!p!(.d | .d) z!pp! (.=c | .=c) z c || %169
[K:C][M:4/4] z2!p!!<(!!>(! c3"^Mit innigster Empfindung"!p! (C A2-)!<)!!>)! | %170
 (A/G/)c- (c/d/)c- (cE F2) | (G2 [A,F])f-!<(! f4!<)! |!p! f4 e4 | d4!<(! e4!<)! | %174
 z!p! (G e2-) (e/d/)g- (g/a/)g- | (gcde-)!<(! (e/c/)d- (d/e/)!mp!d!<)! |!p! (c2 C4) c2- | %177
 (c2 C4)!<(! C2-!<)! |!p!"_cresc." (C/B,/)C- (C/D/)C g4 | g4 f4 | e4 d4- | %181
!f!"_dim." (d/B/)c- (c/d/)c A4- |!p!"_piu"!p! (A/^C/)!p!D- (D/!p!E/)(D D2 ^C2) |!pp! D4 z4 | %184
 z4 z (=c a2-) | (a/g/)c'- (c'/d'/)c'-"_cresc." (c'ef!mp!A) |!p! a4 g4 | f4 (gc g2-) | %188
 (g/e/)f- (f/g/)f-"_cresc." (f/e/)f- (f/g/)f | [Af]2 F2 (C/B/)c- (c/d/)c- | %190
!f! c/c/d- (d/e/)d- d/d/e- (e/f/)e- | (e/d/)!>!e- (e/f/)e (!>!d/e/)d- (d/e/)d | !>![CA]4 !>!B4 | %193
 !>![Ec]4 !>!B4 | !>![Ec]4 !>!F4 | z4"_dim." z (B,CD) | z (CDE) (Cc-) (c/e/)f- | %197
!p! (fedc-)"_piu" (c/A/)!p!B- (B/c/)d- | (d/c/)B- (B/A/)G!<(! c4!<)! | %199
!p!!<(! c4!<)!!mp!!>(! B4!>)! | z4!p! c'4 | c'4"_cresc." b2 [Bf]2 |!f! !>![Bf]6!mf!!>(! [Ge]2!>)! | %203
 z!p! (C A2-) (A/G/)c- (c/d/)c- | (cFGA-) (A/F/)G- (G/A/)G | (A2 c4) c2 | (f4 e4) | (Adcf) g4 | %208
 f4 g4- |"_cresc." g2 (.c'2 .c'2!f! .c'2) |!p! !breath![Ac']4 c4 | %211
!p!"_piu" c'2- (c'-c') [Aa]2- ([Aa]-[Aa]) |!pp! !fermata![ca]4 z4 |] %213
V:3
 x4 | x8 | x8 | x8 | x8 | x8 | x8 | x8 | x8 | x8 | x8 | x8 | x8 | x8 | x8 | x8 | x8 | x8 | x8 | %19
 x8 | x8 | x8 | x8 | x8 | x8 | x8 | x8 | x8 | x8 | x8 | x8 ||[K:D][M:3/8] x3 | x3 | x3 | x3 | x3 | %36
 x3 | x3 | x3 | x3 | x3 | x3 | x3 | x3 | x3 | x3 | x3 | x3 | x3 | x3 | x3 | x3 | x3 | x3 | x3 | %55
 z x A,- | A,A,- A,/4 z/4 z/ | x3 | x3 | x3 | x3 | x3 | x3 | x3 | x3 | z x A, | A,A,- A,/4 z/4 z/ | %67
 x3 | x3 | x3 | x3 | x3 | x3 | x3 | x3 | x3 | x3 | x3 | x3 | x3 | x3 | x3 | x3 | x3 || %84
[K:D][M:4/4] x5 |[K:C] x4 | x8 | x8 | x8 | x8 | x8 | x8 | x8 | x8 | x8 | x8 | x8 | x8 | x8 | x8 | %100
 x8 | x8 | x8 | x8 | x8 | x8 | x8 | x8 | x8 | x8 | x8 | x8 | x8 | x8 | x8 | x8 ||[K:D][M:3/8] x3 | %117
 x3 | x3 | x3 | x3 | x3 | x3 | x3 | x3 | x3 | x3 | x3 | x3 | x3 | x3 | x3 | x3 | x3 | x3 | x3 | %136
 x3 | x3 | x3 | x3 | x3 | x3 | x3 | x3 | x3 | x3 | x3 | x3 | x3 | x3 | x3 | x3 | x3 | x3 | x3 | %155
 x3 | x3 | x3 | x3 | x3 | x3 | x3 | x3 | x3 | x3 | x3 | x3 | x3 | x3 ||[K:C][M:4/4] x8 | x8 | x8 | %172
 x8 | x8 | x8 | x8 | x8 | x8 | x8 | x8 | x8 | x8 | x8 | x8 | x8 | x8 | x8 | x8 | x8 | x8 | x8 | %191
 x8 | x8 | x8 | x8 | x8 | x8 | x8 | x8 | x8 | x8 | x8 | x8 | x8 | x8 | x8 | x8 | x8 | x8 | x8 | %210
 x8 | x8 | x8 |] %213
V:4
 z2 z2 | z4!p!"^sotto voce" (C,2 A,2 | G,2 [C,C]2) [C,C]4 | C,4 G,4 | F,4 G,4 | %5
"_cresc." (C,4 D,2!mp! E,2) |!p! F,4 z4 | z4 (B,2 [D,D]2 | [E,C]2 F,2)!<(! E,4 | F,4 G,4 | %10
 F,4 E,4!<)! |!mp! C,4!>(! (D,2 [F,G,]2)!>)! |!p! [E,G,]4 z4 | (G,2 C,2 D,2 E,2 | F,2 E,2) E,4 | %15
"_cresc." C,4 G,4 | [E,G,]4 A,4 | F,4 [G,G]4 |!f!!>(! [G,G]4!>)! z4 | z2 (G2 B,2 C2 | %20
 F,2 G,2) F,4 |"_cresc." F,4 F,4 | E,4 F,4 | (F,4!mp!!>(! E,2 [C,G,]2)!>)! |!p! C,4 z4 | %25
 z2 (C,2 A,2) A2 | (E2 D2)!p! [F,C]4 |"_cresc." [F,C]4 F4 | E4!mp! F4 |!p! F,4 D,4 | %30
"_cresc." (.A,2 .A,2 .A,2 .A,2) ||[K:D][M:3/8]!f! .[F,A,].F z |!p! .A,.[EA] z |!f! .E,.[DF] z | %34
!p! .F,.[Fc] z |!f! .B,.[DB] z |!p! .D.d D,- |"_cresc." (D,E,F,) | (A, E,>^G,) |!f! .F,.F z | %40
!p! .E,.A z |!f! .D,.D z |!p! .F,.F z/ [=CD]/ |!f! .G,.[DB] z |!p! .[A,D].d D,- | %45
"_cresc." (D,E,F,) | (C!mf!!>(!DC/D/)!>)! |!p! .E,/.E/ z/ D/ z/ E/ | z/ [F,A,]/ z/ C/ z/ D/ | %49
 C,/C/ z/ D/ z/ E/ | z/ F/ z/ c/ z/ d/ | %51
 z/!pp! [B,D]/4[B,D]/4 z/ [B,D]/4[B,D]/4 z/ [B,D]/4[B,D]/4 | %52
 z/ [CE]/4[CE]/4 z/ [CE]/4[CE]/4 z/ [CE]/4[CE]/4 | %53
 z/"_cresc." [G,E]/4[E,G,]/4 z/ [E,G,]/4[E,G,]/4 z/ [E,G,]/4[E,G,]/4 | %54
 z/ [E,G,]/4[E,G,]/4 z/ [E,G,]/4[E,G,]/4 z/ [E,C]/4!f![E,C]/4 |!ff!!>(! ([E,C][D,B,])[D,D]!>)! | %56
!f! ([F,D]G,-)!>(! G,/4F,/4E,/4D,/4!>)! |!p! C,/C/ z/ D/ z/ E/ | z/ [F,A,]/ z/ C/ z/ D/ | %59
 [CE]/C/ z/ [B,D]/ z/ [CE]/ | z/ F/ z/ c/ z/ d/ | %61
 z/!pp! [B,D]/4[B,D]/4 z/ [B,D]/4[B,D]/4 z/ [B,G]/4[B,G]/4 | %62
 z/ [CE]/4[CE]/4 z/ [CE]/4[CE]/4 z/ [CE]/4[CE]/4 | %63
 z/"_cresc." [C,G,]/4[C,G,]/4 z/ [C,G,]/4[C,G,]/4 z/ [C,G,]/4[C,G,]/4 | %64
 z/ [C,G,]/4[C,G,]/4 z/ [C,G,]/4[C,G,]/4 z/ [E,C]/4[E,C]/4 |!ff!!>(! ([E,C][D,B,])[D,D]!>)! | %66
!f! [F,D]G,-!>(! (G,/4F,/4E,/4D,/4)!>)! |!p! (F, D,2) | D,3- | D,3- | D,3- | %71
 D,/!<(!(C/D/!<)!!mp!C/!>(!D/=C/)!>)! |!p! (=C/^A,/B,/C/D/B,/) | (B,/^G,/=A,/^C/D/B,/-) | %74
 (B,/G,/=A,/D/E/A,/) |"_cresc." (G,/F,/D/^A,/D,/B,/) | (D/F,/!mp!=A,/!>(!F,/A,/G,/)!>)! | %77
!p! F,/4(D/4F/4E/4"_cresc." D/4C/4B,/4A,/4 G,/4E/4C/4G,/4 | %78
 F,/4D/4A,/4F,/4 =F,/4D/4B,/4!mp!F,/4!>(! E,/4C/4G,/4E,/4)!>)! |!p! ^F,"_cresc." D,2- | %80
 D,D,!mp!!>(!E,-!>)! |!p! (E,/F,/)"_piu" .D,!p!(.D, | .D,) z!pp! (.G, | .G,) z A, || %84
[K:D][M:4/4] z2 A,3 |[K:C] x z z2 | C,2 A,3 [D,G,] (C2 | E2 A,2) ([F,A,]2 A2-) | (A2 F2 G,2 C2) | %89
 (A,2 A2 c2 G2) |"_cresc." F2 C2 [B,D]2!mp! [CE]2 |!p! (A3 G FG A2) | (A2 D3) (E [G,D]2) | %93
 z ([G,E] F,2)"_cresc." ([E,G,]2 [G,E]2) | (C2 c2-) (c2 [G,G]2) | [C,C]4 [C,C]4- | %96
 [C,C]2!mp!!>(! F4 F2!>)! |!p! E4- (EF G2) | (G,2 C,2-) (C,D,) E,2- | (E,F,G,C,) (CD) E2- | %100
"_cresc." E2 (C2 E,2 G2) | ([G,E]2 e2) c4 | [DF]4 [CE]4 |!f!!>(! [B,D]6!>)!!p! G,2 | %104
 (G2 C3) [B,D] E2- | (EF) G2 G,2 F,2- |"_cresc." (F,2 C2 B,2 F2-) | (F2 E2 c2 C2-) | %108
 C2!mp! B,2!>(! [G,G]2 G,2!>)! |!p! [F,A,]2 F,2 z4 | (C2 A2) (C,2 A,2) | z (E D2) (A,2 F2-) | %112
"_cresc." (F2 c2 B2 F2-) | (F2 E2) (C2!mp! A2) |!p! (A,2 A2 B2 D2) |!p!"_cresc." ^C4- C(C E2) || %116
[K:D][M:3/8]!f! .D,.F z |!p! .E.e z |!f! .B,.B z |!p! .C.c z |!f! .G,.[GB] z |!p! .A,.A D,- | %122
"_cresc." D,A,[F,B,] | (A,!mf!!>(![E,B,]E,/!p![E,=G,]/)!>)! |!f! .F,.F z |!p! .C,.[CE] z | %126
!f! .B,.[Fd] z |!p! .A,.[Ac] z |!f! .G,.[DB] z |!p! .F,.[FA] D,/D/- |"_cresc." D/DEF/ | %131
 z/ (A/!mf!!>(! E>D)!>)! |!p! .E/.E,/ z/ D/ z/ E/ | z/ F/ z/ C/ z/ D/ | C/C,/ z/ D/ z/ E/ | %135
 z/ F/ z/ c/ z/ d/ | z/!pp! B,/4B,/4 z/ [B,D]/4[B,D]/4 z/ [B,G]/4[B,G]/4 | %137
 z/ [CE]/4[CE]/4 z/ [CE]/4[CE]/4 z/ [CE]/4[CE]/4 | %138
"_cresc." z/ [C,G,]/4[C,G,]/4 z/ [C,G,]/4[C,G,]/4 z/ [C,G,]/4[C,G,]/4 | %139
 z/ [C,G,]/4[C,G,]/4 z/ [C,G,]/4[C,G,]/4 [C,G,]/4[C,G,]/4[E,C]/4[E,C]/4 | %140
!f! (!>![E,C][D,B,])[D,D]- | [D,D]!>(!A,- (A,/C/4D/4)!>)! |!p! (E A2) |"^pizz." F,/F/G/C/D/F,/ | %144
 C/c/d/D/E/e/ | F,/F/G/C/F/F,/ | %146
!pp!"_arco" B,/4[B,D]/4[B,D]/4"_arco" z/4 z/4 [B,D]/4[B,D]/4 z/4 z/4 [B,E]/4[B,E]/4 z/4 | %147
"_arco" z/4 [CE]/4[CE]/4 z/4 z/4 [CE]/4[CE]/4 z/4 z/4 [CE]/4[CE]/4 z/4 | %148
"_arco""_cresc." z/4 [G,E]/4[G,E]/4 z/4 z/4 [G,E]/4[G,E]/4 z/4 z/4 [G,E]/4[G,E]/4 z/4 | %149
 [G,E]/4z/[C,G,]/4 [C,G,]/4z/[C,G,]/4 [C,G,]/4[C,G,]/4[C,G,]/4[C,G,]/4 | %150
!f! (!>!c/F/) (F/D/) (D/F,/) | (F,G,)!>(! .F,/4(F,/4E,/4D,/4)!>)! |!p! D,3- | (D, G,2) | (D, F,2) | %155
 (D, B,2) |!<(! z/ (C/D/C/!<)!!mp!!>(!D/=C/)!>)! |!mp! (=C/^A,/B,/C/D/B,/) | %158
 (B,/^G,/=A,/^C/4D/4)(D/A,/-) | (A,/F,/ =G,/C/4D/4) (D/G,/) |"_cresc." (G,/^E,/4F,/4 D/^A,/D/B,/) | %161
 (D/F,/=A,/F,/!mp!!>(!A,/G,/)!>)! |!p! F,/4(D/4F/4E/4"_cresc." D/4C/4B,/4A,/4 G,/4E/4C/4G,/4 | %163
 F,/4D/4A,/4F,/4 =F,/4D/4B,/4F,/4 E,/4C/4G,/4E,/4) |!p! ^F,"_cresc." (F/F,/) (G,/G/) | %165
 (A/A,/) (B,/B/)!mf!!>(! (C/c/)!>)! |!p! (c/d/)"_piu" .[D,D]!p!(.[D,D] | .[D,D]) z!pp! (.G, | %168
 .G,) z A, ||[K:C][M:4/4] z2!p!!<(!!>(! A,3 z z2!<)!!>)! | %170
 z"^Mit innigster Empfindung" (C A2-) (A/G/)c- (c/d/)c- | (cef[A,F])!p!!<(! G2!mp! F2!<)! | z8 | %173
 z4!<(! C4!<)! |!p! C4 B,4 | A,4!<(! B,4!<)! | z!p! (C, A,2-) (A,/G,/)C- (C/D/)C- | %177
 (CF,G,A,-) (A,/!<(!F,/)G,- (G,/A,/)G,!<)! |"_cresc." (E,/D,/)E,- (E,/F,/)E, z B,- (B,/C/)B, | %179
 z C- (C/D/)C G4 | G4 G4 |!f!"_dim." FF, G2- (G/E/)F- (F/G/)F- |!p!"_piu"!p! F4!p! E4 | %183
!pp! F,4 z4 | z (C A2-) (A/G/)c- (c/d/)c | [Ec](E F2"_cresc." G2!mp! F2-) | %186
!p! F(C, A,2-) (A,/G,/)C- (C/D/)C- | (CF,G,A,-) (A,/F,/)G,- (G,/A,/)G, | %188
 (A,C,) A2"_cresc." (DB,) [DB]2 | (c/B/)c- (c/d/)c- (c/D/)E- (E/F/)E- | %190
!f! E/E/F- (F/G/)F (G/B,/)C- (C/D/)C- | (C/B/)!>!c- (c/d/)c (!>!F/C/)D- D/(C/D) | !>![C,C]4 !>!F4 | %193
 !>![G,E]4 !>!F4 | !>![G,E]4 !>!B,4 | z"_dim." (E,F,G,-) (G,/E,/)F,- (F,/G,/)A,- | %196
 (A,G,A,C-) (C/G,<)(A, C/)c |!p! (C,E,F,G,-)"_piu" (G,/E,/)!p!F,- (F,/G,/)A, | %198
 (B,/C/)D- (D/E/)F z2!<(! [G,E]2!<)! |!p!!<(! [G,E]4!<)!!mp!!>(! [G,D]4!>)! | %200
!p!!<(! D4!<)!!mp!!>(! C4!>)! |!p! [Ec]4"_cresc." [DF]4 |!f! !>![B,F]6!mf!!>(! [C,C]2!>)! | %203
!p! ([C,C]4 G,4 | F,4 E,4) | (F4 E4-) | E(E D3 d c2) | [C,C]8 | F4 [G,E]4- | %209
"_cresc." [G,E]2 (.[G,G]2 .[G,F]2!f! .[G,G]2) |!p! [A,F]4 A4 |!p!"_piu" c2- (c-c) A2- (A-A) | %212
!pp! !fermata!A4 z4 |] %213
V:5
 x4 | x8 | x8 | x8 | x8 | x8 | x8 | x8 | x8 | x8 | x8 | x8 | x8 | x8 | x8 | x8 | x8 | x8 | x8 | %19
 x8 | x8 | x8 | x8 | x8 | x8 | x8 | x8 | x8 | x8 | x8 | x8 ||[K:D][M:3/8] x3 | x3 | x3 | x3 | x3 | %36
 x3 | x3 | x3 | x3 | x3 | x3 | x3 | x3 | x3 | x3 | E,3 | x3 | x3 | x3 | x3 | x3 | x3 | x3 | x3 | %55
 x3 | x3 | x3 | x3 | x3 | x3 | x3 | x3 | x3 | x3 | x3 | x3 | x3 | x3 | x3 | x3 | x3 | x3 | x3 | %74
 x3 | x3 | x3 | x3 | x3 | x3 | x3 | x3 | x3 | x3 ||[K:D][M:4/4] x5 |[K:C] x4 | x8 | x8 | x8 | x8 | %90
 x8 | x8 | x8 | x8 | x8 | x8 | x8 | x8 | x8 | x8 | x8 | x8 | x8 | x8 | z4 z2 G,2- | G,2 G,2- z4 | %106
 x8 | x8 | x8 | x8 | x8 | x8 | x8 | x8 | x8 | x8 ||[K:D][M:3/8] x3 | x3 | x3 | x3 | x3 | x3 | x3 | %123
 x3 | x3 | x3 | x3 | x3 | x3 | x3 | x3 | x3 | x3 | x3 | x3 | x3 | x3 | x3 | x3 | x3 | x3 | x3 | %142
 x3 | x3 | x3 | x3 | x3 | x3 | x3 | x3 | x3 | x3 | x3 | x3 | x3 | x3 | x3 | x3 | x3 | x3 | x3 | %161
 x3 | x3 | x3 | x3 | x3 | x3 | x3 | x3 ||[K:C][M:4/4] x8 | x8 | z4 A,4 | x8 | x8 | x8 | x8 | x8 | %177
 x8 | x8 | x8 | x8 | x8 | x8 | x8 | x8 | x8 | x8 | x8 | x8 | x8 | x8 | x8 | x8 | x8 | x8 | x8 | %196
 x8 | x8 | x8 | x8 | x8 | x8 | x8 | x8 | x8 | x8 | x8 | x8 | x8 | x8 | x8 | x8 | x8 |] %213
V:6
 z2 z2 | z8 |!p!"^sotto voce" (C,,2 A,,2) F,,4 | A,,4 C,4 | D,4 C,4 | %5
"_cresc." (A,,4 G,,2!mp! C,2) |!p! D,4 z4 | z4 (G,2 B,,2 | C,2 D,2)!<(! C,4 | F,,4 E,,4 | %10
 F,,4 G,,4!<)! |!mp! A,,4!>(! (B,,2 G,,2)!>)! |!p! [C,,G,,]4 (G,2 C,2 | D,2 E,2 F,2 E,2 | %14
 D,2 C,2) A,,4 |"_cresc." A,,4 E,4 | C,4 F,4 | D,4 C,4 |!f!!>(! G,,4!>)! z4 | z4 (G,2 C,2 | %20
 D,2 E,2) A,,4 |"_cresc." A,,4 G,,4 | C,4 F,,4 | G,,4!mp!!>(! C,,4!>)! |!p! F,,4 z4 | %25
 z4!<(! (A,,2 F,2 | G,2!<)!!mp! G,,2)!p! A,,4 |"_cresc." A,,4 G,,4 | C,4!mp! F,,4 |!p! D,4 G,,4 | %30
"_cresc." (.A,,2 .A,,2 .A,,2 .A,,2) ||[K:D][M:3/8]!f! .D,,.D, z |!p! .C,.C z |!f! .B,,.B, z | %34
!p! .A,,.A, z |!f! .G,,.G, z |!p! .F,.F B,,- |"_cresc." (B,,C,D,) | (E,^G,,A,,) |!f! .D,,.D, z | %40
!p! .C,.C z |!f! .B,,.B, z |!p! .A,,.A, z/ A,/ |!f! .=G,,.=G, z |!p! .F,,.F, B,,- | %45
"_cresc." (B,,C,D, | E,!mf!!>(!^G,,A,,/B,,/)!>)! |!p! .C,/.C/ z/ B,/ z/ C/ | z/ D,/ z/ E,/ z/ D,/ | %49
 A,,/A,/ z/ B,/ z/ C/ | z/ D/ z/ E/ z/ D/ | z/!pp! =G,/4G,/4 z/ G,/4G,/4 z/ G,/4G,/4 | %52
 z/ A,/4A,/4 z/ A,/4A,/4 z/ A,/4A,/4 | z/"_cresc." C,/4C,/4 z/ C,/4C,/4 z/ C,/4C,/4 | %54
 z/ C,/4C,/4 z/ C,/4C,/4 z/ G,,/4!f!G,,/4 |!ff!!>(! (G,,^G,,A,,-)!>)! | %56
!f! (A,,C,,!>(!D,,/A,,/)!>)! |!p! A,,/A,/ z/ B,/ z/ C/ | z/ D,/ z/ E,/ z/ D,/ | %59
 A,/A,,/ z/ A,/ z/ A,/ | z/ D/ z/ E/ z/ D/ | z/!pp! G,/4G,/4 z/ G,/4G,/4 z/ G,/4G,/4 | %62
 z/ [A,G]/4[A,G]/4 z/ [A,G]/4[A,G]/4 z/ [A,G]/4[A,G]/4 | %63
 z/"_cresc." [A,G]/4[A,G]/4 z/ [A,G]/4[A,G]/4 z/ [A,G]/4[A,G]/4 | %64
 z/ [A,G]/4[A,G]/4 z/ [A,G]/4[A,G]/4 z/ G,,/4G,,/4 |!ff!!>(! (G,,^G,,A,,-)!>)! | %66
!f! (A,,C,,!>(!D,,/D,/)!>)! |!p! (=C,/^A,,/B,,/C,/D,/B,,/) | (=C,/^A,,/B,,/^C,/D,/B,,/) | %69
 (B,,/^G,,/=A,,/C,/D,/A,,/) | (A,,/F,,/=G,,/C,/D,/G,,/) | %71
 (G,,/!<(!^E,,/F,,/!<)!!mp!=E,,/!>(!D,,/D,/)!>)! |!p! (D,,/D,/D,,/D,/D,,/D,/) | %73
!p! (D,,/D,/D,,/D,/D,,/D,/) |!p! (D,,/D,/D,,/D,/D,,/D,/) |!p!"_cresc." (D,,/D,/F,,/D,/^G,,/D,/) | %76
 (A,,/D,/A,,/!>(!D,/A,,/C,/)!>)! |!p! (A,,"_cresc."D,,E,, | F,,!mp!^G,,!>(!A,,)!>)! | %79
!p! (D,/4F,/4A,/4=G,/4"_cresc." F,/4E,/4D,/4=C,/4 B,,/4G,/4D,/4B,,/4) | %80
 (A,,/4F,/4D,/4A,,/4 ^G,,/4=F,/4D,/4!mp!G,,/4!>(! =G,,/4A,,/4G,,/4E,,/4)!>)! | %81
!p! (D,,/4A,,/4^F,,/4D,,/4)"_piu" .D,,!p!(.D,, | .D,,) z!pp! (.E, | .E,) z =F, || %84
[K:D][M:4/4] z2 =F,3 |[K:C] x z z2 | z4 (C,2 A,2) | A,G, C3) (C F,2) | z (A,, A,2) (CC, C2) | %89
 (DD, D3) (C, C2) |"_cresc." (A,A,, A,,2 G,G,,)!mp! (C2 |!p! DD, D3) (E F2) | %92
 z G (FG,) (G,2 B,,2) | z (C, D,3)"_cresc." (C, C2) | z (C F,3) (F, E,2) | z (F,, F,3) (G,, G,2) | %96
 z (A,,!mp!!>(! A,3) (G,, G,2)!>)! | z!p! G, C,2[K:tenor] (G2 C2-) | (CD E2-) (EF G2) | %99
[K:bass] (G,C, C3) (B, A,2) | z"_cresc." E,A,,A, EE, E2 | z C, C3 C F2 | z E D3 C G,2- | %103
!f!!>(! G,A,,!>)! G,,3!p! (F, E,2) | z (B, C2) (G,2 C,2 | z D, E,2) (A,A,, A,2-) | %106
"_cresc." A,(A A,2) (G,G,,) G,2- | (G,C, C3) (G, F,2) | (G,G,,!mp! G,3)!>(! (C, C2-)!>)! | %109
!p! (CF,) F2 z4 | z4 (A,,2 F,2) | z (G, G2) (AA, A2) |"_cresc." z (A, A2) (GG, G2) | %113
 z (C, C3) (C!mp! F2) |!p! (DD, D2) (G,G,, G,2) |!p!"_cresc." (A,A,,) A,4- (A,A,,) || %116
[K:D][M:3/8]!f! .D,,.D, z |!p! .C,.C z |!f! .B,,.B, z |!p! .A,,.A, z |!f! .G,,.G, z | %121
!p! .F,.F B,,- |"^cresc." B,,C,D, |!mf! E,!>(!^G,,!p!A,,!>)! |!f! .D,,.D,.D | z!p! .C,,.C, | %126
 z!f! .B,,.B, | z!p! .A,,.A, | z!f! .G,,.G, | z!p! F, B,,/B,/- |"_cresc." B,/B,CD/ | %131
 (E!mf!^G,!>(!A,/B,/)!>)! |!p! .C/.C,/ z/ B,/ z/ C/ | z/ D/ z/ E,/ z/ D,/ | A,/A,,/ z/ B,/ z/ C/ | %135
 z/ D/ z/ E/ z/ D/ | z/!pp! =G,/4G,/4 z/ G,/4G,/4 z/ G,/4G,/4 | %137
 z/ [A,G]/4[A,G]/4 z/ [A,G]/4[A,G]/4 z/ [A,G]/4[A,G]/4 | %138
"_cresc." z/ [A,G]/4[A,G]/4 z/ [A,G]/4[A,G]/4 z/ [A,G]/4[A,G]/4 | %139
 z/ [A,G]/4[A,G]/4 z/ [A,G]/4[A,G]/4 z/ G,,/4G,,/4 |!f! (!>!G,,^G,,A,,-) | (A,,C,,D,,) | %142
!p!"^pizz." A,,/A,/B,/B,,/C,/C/ | B,,/D/E/C,/B,,/D/ | A,,/A,/B,/B,,/C,/C/ | D,/D/E/E,/D/D,/ | %146
!pp! G,/4z/"_arco"G,,/4 G,,/4z/G,,/4 G,,/4z/G,,/4 | A,,/4z/"_arco"A,,/4 A,,/4z/A,,/4 A,,/4z/A,,/4 | %148
"_cresc." C,,/4z/"_arco"C,,/4 C,,/4z/C,,/4 C,,/4z/C,,/4 | %149
 C,,/4[K:tenor] G/4G/4 z/ G/4G/4 z/ G/4[K:bass] G,,/4G,,/4 |!f! (!>!G,,/^G,,/) (G,,/A,,/) A,,- | %151
 (A,,C,,!>(! D,,/D,/)!>)! |!p! (=C,/^A,,/B,,/C,/D,/C,/) | (=C,/^A,,/B,,/^C,/D,/B,,/) | %154
 (B,,/^G,,/=A,,/C,/D,/A,,/) | (A,,/F,,/=G,,/C,/D,/G,,/) | %156
!<(! (G,,/^E,,/F,,/=E,,/!<)!!mp!!>(!D,,/D,/)!>)! |!mp! (D,,/D,/D,,/D,/D,,/D,/) | %158
 (D,,/D,/D,,/D,/D,,/D,/) | (D,,/D,/D,,/D,/D,,/D,/) | (D,,/D,/F,,/D,/^G,,/D,/) | %161
 (A,,/D,/A,,/D,/A,,/E,/) |!p! (A,,"_cresc."D,,E,, | F,,^G,,A,,) | %164
!p! D,,/4(F,/4A,/4=G,/4"_cresc." F,/4E,/4D,/4=C,/4 B,,/4G,/4D,/4B,,/4 | %165
 A,,/4F,/4D,/4A,,/4 ^G,,/4=F,/4D,/4G,,/4!mf! =G,,/4A,,/4G,,/4E,,/4) | %166
!p! (D,,/4A,,/4^F,,/4A,,/4)"_piu" .D,,!p!(.D,, | .D,,) z!pp! (.E, | .E,) z =F, || %169
[K:C][M:4/4] z2!p!!<(!!>(! F,3 z z2!<)!!>)! | z4"^Mit innigster Empfindung" z (C, A,2-) | %171
 (A,/G,/)C- (C/D/)C-!<(! (CE,!mp! F,2!<)! |!p! G,2 F,2) (C2 C,2-) | (C,2!<(! C,,4) C,2!<)! | z8 | %175
 z4[K:tenor]!<(! F4!<)! |!p! F4 E4 | D4!<(! E4!<)! | %178
[K:bass] z!p!"_cresc." (G,, E,2-) (E,/D,/)G,- (G,/A,/)G,- | (G,C,D,E,-) (E,/C,/)D,- (D,/E,/)D,- | %180
 (D,/B,,/)C,- (C,/D,/)C,- (C,/A,,/)B,,- (B,,/C,/)B,, |!f!"_dim." C,4 D,4 |!p!"_piu"!p! A,,8 | %183
!pp! D,4 z4 | z8 | z (C,, A,,2)"_cresc." F,,4 |!p! F,,4 E,,4 | D,,4 E,,4 | F,,4"_cresc." G,,4 | %189
 F,,(C,, A,,2-) (A,,/G,,/)C,!f! [C,,C,]2 | !>![C,,C,]4 !>!B,,4 | !>!A,,4 !>!B,,4 | %192
 [C,,C,]4 !>!D,4 | !>![C,,C,]4- [C,,C,]/!fff!B,,/C,- C,/D,/C, |!f! !>![C,,C,]4 !>!D,4 | %195
 z"_dim." (C,D,E,-) (E,/C,/)D,- D,/E,/F,- | (F,E,F,G,-) (G,/E,<)(F, G,/)A, | %197
 z!p! (C,,D,,E,,-)"_piu" (E,,/C,,/)!p!D,,- (D,,/E,,/)F,, | (G,,/A,/)B,- (B,/C/)D z2!<(! C,2!<)! | %199
!p!!<(! C,4!<)!!mp!!>(! G,,4!>)! | z4 C,4 | C,4"_cresc." G,,4 | %202
!f! !>![C,,G,,]6!mf!!>(! [C,,G,,]2!>)! |!p! (F,,4 E,,4-) | E,,(E,, D,,3 D, C,2) | [C,,C,]8- | %206
 [C,,C,]8- | [C,,C,](C,, A,,2-) (A,,/G,,/)C,- (C,/D,/)C, | D,4 C,4- | %209
"_cresc." C,2 (.C,2 .C,2!f! .C,2) |!p! F,,4 z4 |[K:tenor]!p!"_piu" F2- (F-F) F2- (F-F) | %212
!pp! !fermata!F4 z4 |] %213

